**kern	**kern	**dynam
*part1	*part1	*part1
*staff2	*staff1	*
*I"Piano	*	*
*clefF4	*clefG2	*
*k[b-e-a-]	*k[b-e-a-]	*
*M3/4	*M3/4	*
=1	=1	=1
4E-	4ee- 4gg	mf
4B- 4e- 4g	4.ee- 4.ff#X	.
4B- 4e- 4g	.	.
.	8ee- 8gg	.
=	=	=
4G	4gg 4bb-	.
4B- 4e- 4g	4.gg 4.bb-	.
4G-X	.	.
.	8b- 8ee-	.
=	=	=
4F	4a- 4dd	.
4A- 4B- 4d	4.bb-	.
4A- 4B- 4d	.	.
.	8a- 8cc	.
=	=	=
4BB-	2a- 2b-	.
4A- 4B- 4d	.	.
4A- 4B- 4d	4r	.
=	=	=
4F	4dd 4aa-	.
4A- 4B- 4d	4.dd 4.gg	.
4A- 4B- 4d	.	.
.	8dd 8aa-	.
=	=	=
4BB-	4dd 4aa- 4bb-	.
4A- 4B- 4d	4.bb- 4.ggg	.
4A- 4B- 4d	.	.
.	8aa- 8fff	.
=	=	=
4E-	4gg 4fff	.
4G 4B- 4e-	4.gg 4.eee-	.
4A- 4c 4e-	.	.
.	8aa- 8ccc	.
=	=	=
*-	*-	*-
!!!system-decoration: {(s1,s2)}
